outputs/icons/content/reply_round.svg

<svg xmlns="http://www.w3.org/2000/svg" width="1200" height="1200" fill="none"><g clip-path="url(#a)"><path fill="#000" d="M500.01 449.988v-79.5c0-44.5-53.999-67-85.5-35.5L185.011 564.49c-19.5 19.5-19.5 51 0 70.5l229.499 229.5c31.501 31.5 85.5 9.5 85.5-35v-84.5c250 0 425 80 550 255-50-250-200-500.002-550-550.002"/></g><defs><clipPath id="a"><path fill="#fff" d="M0 0h1200v1200H0z"/></clipPath></defs></svg>

<svg width="1200" height="1200" viewBox="0 0 1200 1200" fill="none" xmlns="http://www.w3.org/2000/svg"><g clip-path="url(#clip0_225_3318)"><path d="M499.998 449.988V370.488C499.998 325.988 445.998 303.488 414.499 334.988L184.999 564.49C165.498 583.99 165.498 615.49 184.999 634.99L414.499 864.49C445.998 895.99 499.998 873.99 499.998 829.49V744.99C750 744.99 925 824.99 1050 999.99C1000 749.99 850 499.988 499.998 449.988Z" fill="#1D1E23"/></g><defs><clipPath id="clip0_225_3318"><path width="24" fill="white" d="M0 0H1200V1200H0V0z"/></clipPath></defs></svg>
